X:822
T:Xiraldilla (CT 244)
R:Xiraldilla
C:Tradicional
S:Msica Tradicional Asturiana, (C) Tello & Tito. Asturies, 2001.
S:http://pagina.de/MusTradAst <telloytito@asturies.org>
N:Xiraldilla, transcrita en Meres, ayuntamiento de Siero.
A:Asturies
O:Meres (Siero)
Z:Cancioneru de Torner 244
M:2/4
L:1/8
Q:1/4=160
K:G
|FF AA|B3 G|F2 GG|G4|
F2 AA|B3 G|F2 GG|G2 z2|
|B2 Bc|d3 c|d3 c|BG AB|c4|
B2 dd|c3 A|F2 GG|G4|
F2 AA|B3 G|F2 GG|G2 z2||
W:A los campos del Rey vas, Irene:
W:ai, morenita, cmo llueve!
W:Tanto ha llovido,
W:que hasta los naranjales
W:han florecido.
W:Pino verde,
W:qu serenita cai la nieve!
W:
